X: 4419
M: 2/4
L: 1/8
K: G
|: G |\
cege | cBBz | d(3(d/e/d/) cA | GBB>G |\
cege | dBBz | d(3(d/e/d/) cA | GBG :|


